X: 128001
M: 6/8
L: 1/8
K: A
|:\
vA2vc ue2uf | e2f ecA | A2c e2f | ecA B3 |\
efe cAc | def ecA | GAB ud2uf | ecA Bcd |\
efe cAc | def ecA | GAB dfe | dcB A2 |]


